src/WebExpress.WebUI/Assets/icons/robot.svg

﻿<?xml version="1.0" encoding="UTF-8" standalone="no"?>
<svg width="21" height="21" viewBox="0 0 21 21" xmlns="http://www.w3.org/2000/svg">
  <style>.st1 {display:none}
		.st2 {fill:#000000;stroke:none;stroke-linecap:round;stroke-linejoin:round;stroke-width:0.24}
		.st3 {fill:none;fill-rule:evenodd;font-size:12px;overflow:visible;stroke-linecap:square;stroke-miterlimit:3}</style>
  <g transform="scale(0.074083)">
<g>
		
		
		<g id="shape1-1" transform="translate(0.000280035,-0.0004331)">
			
			<rect x="0" y="-0.035" width="283.5" height="283.5" class="st1"/>
		</g>
		<g id="group3-3" transform="translate(85.5,-73.2565)">
			
			<g id="shape4-4" transform="translate(27.2792,-59.521)">
				
				<path d="M6.74 279.13 L6.74 271.38 L14.5 271.38 L14.5 279.13 L6.74 279.13 ZM0.68 268.98 A10.5912 10.5912 -180 0 0
							 0 272.71 A10.5912 10.5912 -180 1 0 21.18 272.71 A10.5912 10.5912 -180 0 0 20.5 268.98 L0.68 268.98 Z"
						class="st2"/>
			</g>
			<g id="shape5-6" transform="translate(64.1577,-59.521)">
				
				<path d="M6.74 279.13 L6.74 271.38 L14.5 271.38 L14.5 279.13 L6.74 279.13 ZM0.68 268.98 A10.5912 10.5912 -180 0 0
							 0 272.71 A10.5912 10.5912 -180 1 0 21.18 272.71 A10.5912 10.5912 -180 0 0 20.5 268.98 L0.68 268.98 Z"
						class="st2"/>
			</g>
			<g id="shape6-8">
				
				<path d="M2.98 231.24 L8.97 231.24 L8.97 274.51 A8.95224 8.95224 -180 0 0 17.92 283.46 L94.76 283.46 A8.95224 8.95224
							 -180 0 0 103.71 274.51 L103.71 231.24 L109.52 231.24 A2.98408 2.98408 -180 0 0 112.5 228.26 L112.5 216.32
							 A2.98408 2.98408 -180 0 0 109.52 213.34 L103.71 213.34 L103.71 210.33 A8.95224 8.95224 -180 0 0 101.09
							 204 L78.73 181.64 A8.95224 8.95224 -180 0 0 72.4 179.02 L58.92 179.02 L58.73 161.13 A7.60706 7.60706
							 -180 0 0 61.27 159.45 A7.60706 7.60706 -180 0 0 50.51 148.7 A7.60706 7.60706 -180 0 0 53.07 161.14 L53.26
							 179.02 L41.03 179.02 A8.95224 8.95224 -180 0 0 34.7 181.64 L11.59 204.75 A8.95224 8.95224 -180 0 0 8.97
							 211.08 L8.97 213.34 L2.98 213.34 A2.98408 2.98408 -180 0 0 -0 216.32 L0 228.26 A2.98408 2.98408 -180
							 0 0 2.98 231.24 ZM86.18 238.7 A11.9363 8.95224 90 0 1 95.13 250.64 A11.9363 8.95224 90 0 1 85.54 262.55
							 L27.15 262.55 A11.9363 8.95224 90 0 1 17.55 250.64 A11.9363 8.95224 90 0 1 26.5 238.7 L86.18 238.7 ZM82.06
							 242.63 L82.06 258.63 L82.73 258.63 A8.09145 8.00776 -0 0 0 91.4 250.64 A8.09145 8.00776 -0 0 0 83.31
							 242.63 L82.06 242.63 ZM69.64 242.63 L69.64 258.63 L79.08 258.63 L79.08 242.63 L69.64 242.63 ZM57.22
							 242.63 L57.22 258.63 L66.66 258.63 L66.66 242.63 L57.22 242.63 ZM44.8 242.63 L44.8 258.63 L54.24 258.63
							 L54.24 242.63 L44.8 242.63 ZM29.39 258.65 L29.39 242.63 L29.37 242.63 A8.09145 8.00776 -0 0 0 21.28
							 250.64 A8.09145 8.00776 -0 0 0 29.39 258.65 ZM32.38 242.63 L32.38 258.63 L41.81 258.63 L41.81 242.63
							 L32.38 242.63 ZM60.44 213.34 A14.365 14.365 0 1 1 89.17 213.34 A14.365 14.365 0 1 1 60.44 213.34 ZM23.52
							 213.34 A14.3609 14.3609 0 0 1 52.24 213.34 A14.3609 14.3609 0 1 1 23.52 213.34 Z" class="st2"/>
			</g>
		</g>
	</g>
  </g>
</svg>

<?xml version="1.0" encoding="UTF-8"?>
<svg width="21" height="21" version="1.1" viewBox="0 0 21 21" xmlns="http://www.w3.org/2000/svg">
 <style>.st1 {display:none}
		.st2 {fill:#000000;stroke:none;stroke-linecap:round;stroke-linejoin:round;stroke-width:0.24}
		.st3 {fill:none;fill-rule:evenodd;font-size:12px;overflow:visible;stroke-linecap:square;stroke-miterlimit:3}</style>
 <g transform="matrix(.14023 0 0 .14023 -9.3775 -9.3804)">
  <g transform="translate(85.5 -73.256)">
   <g transform="translate(27.279 -59.521)">
    <path class="st2" d="m6.74 279.13v-7.75h7.76v7.75zm-6.06-10.15a10.591 10.591-180 0 0-0.68 3.73 10.591 10.591-180 1 0 21.18 0 10.591 10.591-180 0 0-0.68-3.73z"/>
   </g>
   <g transform="translate(64.158 -59.521)">
    <path class="st2" d="m6.74 279.13v-7.75h7.76v7.75zm-6.06-10.15a10.591 10.591-180 0 0-0.68 3.73 10.591 10.591-180 1 0 21.18 0 10.591 10.591-180 0 0-0.68-3.73z"/>
   </g>
   <path class="st2" d="m2.98 231.24h5.99v43.27a8.9522 8.9522-180 0 0 8.95 8.95h76.84a8.9522 8.9522-180 0 0 8.95-8.95v-43.27h5.81a2.9841 2.9841-180 0 0 2.98-2.98v-11.94a2.9841 2.9841-180 0 0-2.98-2.98h-5.81v-3.01a8.9522 8.9522-180 0 0-2.62-6.33l-22.36-22.36a8.9522 8.9522-180 0 0-6.33-2.62h-13.48l-0.19-17.89a7.6071 7.6071-180 0 0 2.54-1.68 7.6071 7.6071-180 0 0-10.76-10.75 7.6071 7.6071-180 0 0 2.56 12.44l0.19 17.88h-12.23a8.9522 8.9522-180 0 0-6.33 2.62l-23.11 23.11a8.9522 8.9522-180 0 0-2.62 6.33v2.26h-5.99a2.9841 2.9841-180 0 0-2.98 2.98v11.94a2.9841 2.9841-180 0 0 2.98 2.98zm83.2 7.46a11.936 8.9522 90 0 1 8.95 11.94 11.936 8.9522 90 0 1-9.59 11.91h-58.39a11.936 8.9522 90 0 1-9.6-11.91 11.936 8.9522 90 0 1 8.95-11.94zm-4.12 3.93v16h0.67a8.0914 8.0078 0 0 0 8.67-7.99 8.0914 8.0078 0 0 0-8.09-8.01zm-12.42 0v16h9.44v-16zm-12.42 0v16h9.44v-16zm-12.42 0v16h9.44v-16zm-15.41 16.02v-16.02h-0.02a8.0914 8.0078 0 0 0-8.09 8.01 8.0914 8.0078 0 0 0 8.11 8.01zm2.99-16.02v16h9.43v-16zm28.06-29.29a14.365 14.365 0 1 1 28.73 0 14.365 14.365 0 1 1-28.73 0zm-36.92 0a14.361 14.361 0 0 1 28.72 0 14.361 14.361 0 1 1-28.72 0z"/>
  </g>
 </g>
</svg>
